website/public/Images/logos/mysql.svg

<svg width="28" height="28" viewBox="0 0 28 28" fill="none" xmlns="http://www.w3.org/2000/svg">
<g clip-path="url(#clip0)">
<path d="M25.7751 21.2419C24.2528 21.2039 23.073 21.3563 22.0834 21.7748C21.798 21.8889 21.3412 21.8891 21.3032 22.2505C21.4555 22.4029 21.4745 22.6502 21.6077 22.8595C21.8362 23.24 22.2356 23.7539 22.5972 24.0203C22.9968 24.3248 23.3965 24.6292 23.815 24.8956C24.5572 25.3524 25.3945 25.6187 26.1176 26.0755C26.5364 26.3417 26.9548 26.6844 27.3735 26.9698C27.5829 27.1219 27.716 27.3694 27.9824 27.4646V27.4075C27.8492 27.2362 27.8111 26.9888 27.678 26.7985C27.4879 26.6082 27.2974 26.4369 27.1072 26.2466C26.5553 25.5046 25.8703 24.8575 25.1281 24.3248C24.5192 23.9061 23.1871 23.3352 22.9397 22.6311C22.9397 22.6311 22.9206 22.6121 22.9017 22.5932C23.3203 22.5551 23.815 22.4029 24.2147 22.2886C24.8617 22.1173 25.4516 22.1554 26.1176 21.9842C26.422 21.908 26.7266 21.8129 27.031 21.7177V21.5466C26.6886 21.2039 26.4411 20.7473 26.0795 20.4238C25.1091 19.5863 24.0434 18.7682 22.9397 18.0832C22.3498 17.7027 21.5886 17.4552 20.9607 17.1318C20.7324 17.0174 20.3517 16.9605 20.2186 16.7702C19.876 16.3515 19.6857 15.7997 19.4383 15.3049C18.8867 14.2582 18.3537 13.0976 17.8779 11.9939C17.5356 11.2517 17.3262 10.5095 16.9075 9.82456C14.9475 6.58962 12.8162 4.62964 9.54323 2.70763C8.83913 2.30806 8.00192 2.13676 7.10753 1.92748C6.63192 1.90838 6.15608 1.87042 5.68035 1.85132C5.37593 1.71809 5.07139 1.35661 4.80493 1.1853C3.7205 0.500182 0.923074 -0.983945 0.123832 0.97603C-0.389978 2.21292 0.884995 3.43071 1.32263 4.05876C1.64627 4.49641 2.06482 4.99112 2.29319 5.48595C2.42642 5.80923 2.46438 6.15197 2.59761 6.49447C2.90214 7.33155 3.18746 8.26414 3.58714 9.04442C3.79654 9.44398 4.02479 9.86265 4.29124 10.2241C4.44345 10.4334 4.70979 10.5287 4.76697 10.8712C4.50063 11.2517 4.48153 11.8226 4.3292 12.2983C3.64421 14.4486 3.91066 17.1127 4.88109 18.6921C5.18551 19.1677 5.90871 20.2145 6.87915 19.8148C7.73546 19.4723 7.54517 18.3876 7.79252 17.4362C7.84971 17.2077 7.81162 17.0556 7.92575 16.9034C7.92585 16.9224 7.92575 16.9415 7.92575 16.9415C8.1922 17.4743 8.45854 17.9881 8.70589 18.5209C9.29587 19.4532 10.3234 20.4238 11.1797 21.0708C11.6365 21.4132 11.998 22.0032 12.5689 22.2126V22.1554H12.5308C12.4166 21.9841 12.2454 21.908 12.0932 21.7748C11.7507 21.4323 11.37 21.0136 11.1036 20.6331C10.3045 19.5674 9.60028 18.3877 8.97235 17.1697C8.66793 16.5799 8.40148 15.9328 8.15412 15.343C8.03988 15.1145 8.03988 14.7721 7.84959 14.658C7.56415 15.0765 7.14561 15.4381 6.93621 15.952C6.57486 16.7702 6.53665 17.7787 6.40342 18.8253C6.32738 18.8444 6.36534 18.8253 6.32726 18.8634C5.71842 18.711 5.50903 18.0832 5.28066 17.5503C4.70978 16.1993 4.61464 14.0299 5.10947 12.4697C5.24269 12.07 5.81357 10.8141 5.58519 10.4335C5.47107 10.0719 5.09036 9.86264 4.88109 9.5772C4.63374 9.2156 4.36728 8.75898 4.1961 8.3593C3.73935 7.29371 3.51098 6.11389 3.01627 5.04818C2.7879 4.55335 2.38834 4.03967 2.06482 3.58304C1.70334 3.06923 1.30365 2.70763 1.01821 2.09867C0.923189 1.8894 0.789841 1.5469 0.942049 1.31853C0.980132 1.16632 1.05618 1.10926 1.2085 1.07117C1.45586 0.86178 2.15996 1.12824 2.40731 1.24236C3.11141 1.52768 3.70126 1.79425 4.29123 2.19382C4.55757 2.38411 4.843 2.74571 5.1855 2.84085H5.58519C6.19414 2.97396 6.87914 2.87894 7.45001 3.05013C8.45865 3.37352 9.3719 3.84937 10.1903 4.36318C12.6831 5.94257 14.7381 8.1881 16.1273 10.8712C16.3557 11.3087 16.4507 11.7085 16.6601 12.1651C17.0598 13.0976 17.5545 14.049 17.9541 14.9624C18.3537 15.8567 18.7342 16.7702 19.3051 17.5124C19.5907 17.9118 20.7323 18.1212 21.2461 18.3306C21.6267 18.5018 22.2167 18.6541 22.5591 18.8634C23.2061 19.2628 23.8531 19.7197 24.4621 20.1573C24.7666 20.3856 25.7179 20.8614 25.7751 21.2419L25.7751 21.2419Z" fill="#00546B"/>
<path d="M6.36413 4.70557C6.04061 4.70557 5.81236 4.74377 5.58398 4.80083C5.58398 4.80073 5.58398 4.81994 5.58398 4.83892H5.62207C5.7744 5.14333 6.04061 5.35273 6.2309 5.61906C6.38323 5.92348 6.51634 6.22802 6.66867 6.53255C6.68765 6.51345 6.70663 6.49447 6.70663 6.49447C6.9732 6.30406 7.10631 5.99964 7.10631 5.54302C6.99206 5.40979 6.97308 5.27656 6.87794 5.14333C6.76381 4.95292 6.51634 4.8579 6.36413 4.70557Z" fill="#00546B"/>
</g>
<defs>
<clipPath id="clip0">
<rect width="28" height="27.5625" fill="white"/>
</clipPath>
</defs>
</svg>

<svg xmlns="http://www.w3.org/2000/svg" width="28" height="28" fill="none" xmlns:v="https://vecta.io/nano"><g clip-path="url(#A)" fill="#00546b"><path d="M25.775 21.242c-1.522-.038-2.702.114-3.692.533-.285.114-.742.114-.78.476.152.152.171.4.305.609.229.38.628.894.989 1.161l1.218.875c.742.457 1.579.723 2.303 1.18.419.266.837.609 1.256.894.209.152.343.4.609.495v-.057c-.133-.171-.171-.419-.304-.609l-.571-.552a9.04 9.04 0 0 0-1.979-1.922c-.609-.419-1.941-.99-2.188-1.694l-.038-.038c.419-.038.913-.19 1.313-.305.647-.171 1.237-.133 1.903-.304l.913-.267v-.171c-.342-.343-.59-.799-.951-1.123-.97-.837-2.036-1.656-3.14-2.341-.59-.381-1.351-.628-1.979-.951-.228-.114-.609-.171-.742-.362-.343-.419-.533-.97-.78-1.465l-1.56-3.311c-.342-.742-.552-1.484-.97-2.169-1.96-3.235-4.091-5.195-7.364-7.117-.704-.4-1.541-.571-2.436-.78l-1.43-.076c-.304-.133-.609-.495-.875-.666C3.721.5.923-.984.124.976-.39 2.213.885 3.431 1.323 4.059c.324.438.742.932.971 1.427.133.323.171.666.304 1.009.305.837.59 1.77.99 2.55.209.4.438.818.704 1.18.152.209.419.305.476.647-.266.38-.285.951-.438 1.427-.685 2.15-.419 4.814.552 6.394.304.476 1.028 1.522 1.998 1.123.856-.343.666-1.427.913-2.379.057-.229.019-.381.133-.533v.038l.78 1.579c.59.932 1.618 1.903 2.474 2.55.457.342.818.932 1.389 1.142v-.057h-.038c-.114-.171-.285-.247-.438-.381a9.25 9.25 0 0 1-.99-1.142c-.799-1.066-1.503-2.245-2.131-3.463-.304-.59-.571-1.237-.818-1.827-.114-.229-.114-.571-.305-.685-.285.418-.704.78-.913 1.294-.361.818-.4 1.827-.533 2.873-.076.019-.038 0-.076.038-.609-.152-.818-.78-1.047-1.313-.571-1.351-.666-3.52-.171-5.081.133-.4.704-1.656.476-2.036-.114-.362-.495-.571-.704-.856-.247-.362-.514-.818-.685-1.218-.457-1.066-.685-2.245-1.18-3.311-.228-.495-.628-1.009-.951-1.465-.361-.514-.761-.875-1.047-1.484-.095-.209-.228-.552-.076-.78.038-.152.114-.209.266-.247.247-.209.951.057 1.199.171.704.285 1.294.552 1.884.951.266.19.552.552.894.647h.4c.609.133 1.294.038 1.865.209 1.009.323 1.922.799 2.74 1.313 2.493 1.579 4.548 3.825 5.937 6.508.228.438.323.837.533 1.294.4.932.894 1.884 1.294 2.797.4.894.78 1.808 1.351 2.55.286.399 1.427.609 1.941.818.381.171.971.323 1.313.533.647.399 1.294.856 1.903 1.294.305.228 1.256.704 1.313 1.085h0zM6.364 4.706a3.01 3.01 0 0 0-.78.095v.038h.038c.152.304.419.514.609.78l.438.913.038-.038c.267-.19.4-.495.4-.951-.114-.133-.133-.266-.228-.4-.114-.19-.362-.285-.514-.438z"/></g><defs><clipPath id="A"><path fill="#fff" d="M0 0h28v27.563H0z"/></clipPath></defs></svg>
